img/icon-codepen.svg

<svg fill="none" height="24" viewBox="0 0 24 24" width="24" xmlns="http://www.w3.org/2000/svg"><g stroke="#fff"><path d="m12 2 10 6.5v7l-10 6.5-10-6.5v-7z" fill="none" stroke-width="2"/><path d="m12 8.5-10 6.5m10-6.5 10 6.5m-10-6.5v-6.5m0 13.5-10-6.5m10 6.5 10-6.5m-10 6.5v6.5" stroke-width="1.5"/></g></svg>

<svg width="24" height="24" viewBox="0 0 24 24" fill="none" xmlns="http://www.w3.org/2000/svg">
<path d="M12 2L22 8.5V15.5L12 22L2 15.5V8.5L12 2Z" stroke="white" stroke-width="2" fill="none"/>
<path d="M12 8.5L2 15M12 8.5L22 15M12 8.5V2M12 15.5L2 9M12 15.5L22 9M12 15.5V22" stroke="white" stroke-width="1.5"/>
</svg>
